X: 1497
T: Nihâvent Seyir
C: Erol Bingöl
O: Turkey
F: http://compmusic.upf.edu/node/140
N: nihavent--seyir--turkaksagi--1--erol_bingol
N: makam= nihavent
N: form= seyir
N: usul= turkaksagi = 5/8
M: 5/8
L: 1/16
K: C _B _e  
Q: 1/4=120
%%MIDI tuningsystem comma53
c3d d4 c2 | d2 edd6  | d3c Bcde dc | BA G^FG6  | 
w:   |   |   |   | 
G2A2 B2A2 G2 | A2 B2c2 B2A2  | B2c2 d2e2 ^f2 | \
w:   |   |   | 
ag ^fed6  | d4 g4 a2 | 
w:   |   | 
b2 a2g2 ^f2e2  | d2e2 d4 c2 | cB BAA6  | \
w:   |   |   | 
G3A B2c2 A2 | B2 c2d6  | 
w:   |   | 
A2B2 c4 BA | AG G^FG6  | |


